X:1
T:Khvalitye imya Gospodie
T:П. И. Чаиковский, 1878
T:Attributed to John Chrysostom, c. 349-407 AD
T:Милость мира
T:Литургиа Святого Иоанна Златоуста , Op. 41, No. 9
T:Public Domain
T:Public Domain
T:Public Domain
C:Sergei Rakhmanninov
Z:Public Domain
%%score [ 1 2 3 4 ]
L:1/8
Q:1/4=80
M:4/4
K:G
V:1 treble nm="Сопраны" snm="С"
V:2 treble nm="Альты" snm="А"
V:3 treble-8 nm="Теноры" snm="Т"
V:4 bass nm="Бассы" snm="Б"
V:1
"^Довольно медленно\nModerately slow"!p!"^Мi – lost'     mi– ra,   zhert–vu khva-lye-ni  –  ya.                  I   so   du–khom tvo–im.      I    ma–myi ko   Go – spo – du.""^Ми–лость ми–ра,   жерт–ву  хва–ле–ни  –  я.                   И  со    ду–хом тво–им.      И   ма–мы  ко    Го – спо – ду." B4 A4 | %1
!<(! c4 B4!<)! | e4 A2 B2 |!>(! c4 d4!>)! | B8 || z4!p! A2 B2 | c4 c2 d2 | !fermata!B8 || %8
!p! A3 A A2 B2 | c4 d4 | !fermata!B8 || %11
 z4 z2!p!"^Dos – toi   – no    i      pra–vyed–no  yest'  po–kla – nya  –   ti   –  sya  Ot–tsu   i        Syi – nu,          i    Svya–to–mu  Du–""^Дос – той – но   и      пра–вед–но  есть  по–кла – ня   –  ти  –   ся   От–цу  и       Сы – ну,          и   Свя – то–му  Ду –" B2 | %12
 B4 A2 A2 |!<(! c2 BB B2 BB!<)! |!mf! e2 A2 AABB | c2 c2 z2 cc | c2 c2 d4 | %17
"^– ху,          Тро – и  –  це   е – ди–но–сущ      –         ней       и      не–pаз – дель – ней.           Свят, Свят, Свят, Гос–подь Са–ва –""^–khu,        Tro –  i   – tse  ye–di–no–sushch  –         nyei       i      nye–raz – del'  –  nyei.         Svyat, Svyat, Svyat, Gos-pod'  Sa–va –" B2 z2!p! A3 A | %18
 AAAB (c2 d2) | B4 A2 AB | (c2 d2) !fermata!B4 ||[K:C]"^Скоро\nFast"[Q:1/4=130]!ff! c4 e4 | %22
 g2 c2 d2 BB | %23
"^–оθ! Ис-полнь не-бо и   зем–ля _____________________________________      сла      –      вы  Тво–е   –   я,          сла      –     вы   Тво–е   –""^–оth!  Is– poln'  ne–bo  i   zem–lya ____________________________________       sla       –      vyi  Tvo–ye – ya,          sla       –    vyi   Tvo–ye  –" c2 cd edef | %24
 g8- | g2 f2- ffff | e2 e2- eeee | %27
"^–я:   О-сан-на в выш-них, О–сан–на  в выш–них,  бла–го–сло – вен гря–дый во        и –  мя  Гос – под      –    не.   О–сан–на""^–ya: О-san-na v vyish-nikh, О–san–na v vyish-nikh, bla – go–slo – ven grya–dyii  vo       i  – mya Gos– pod      –   nye.  O–san–na" d2 G2 c2 B2 | %28
 A2 BB c2 B2 | A2 B2 c2 cc | B2 A2 G2 e2 | d2 BB A4 | G2 G2 c2 B2 | %33
"^в выш-них, О–сан–на в выш–них,  О–сан – на,  О    –     сан–на           в выш      –       них!                 А     –  минь,      А    –   минь.""^v vyish-nikh, O-san-na v vyish-nikh, O–san–na,  O    –     san–na           v vyish    –       nikh!                 A   –   min',         A   –    min'." A2 BB c2 B2 | %34
 A2 BB c2 dd |[M:2/4] e2 e2 |[M:4/4] (d4 g4) | !fermata!c8 || %38
"^Mедленно\nSlow"[Q:1/4=70]!mf! [ce]8 | !fermata!c8 |!p! c8 | !fermata!G8 |] %42
V:2
!p! G4 F4 |!<(! A4 ^G4!<)! | A4 A2 A2 |!>(! A4 A4!>)! | G8 || z4!p! E2 E2 | E4 A2 A2 | %7
 !fermata!G8 ||!p! E3 E E2 E2 | E4 A4 | !fermata!G8 || z4 z2!p! G2 | G4 F2 F2 | %13
!<(! A2 ^GG G2 GG!<)! |!mf! A2 A2 AAAA | A2 A2 z2 AA | A2 A2 A4 | G2 z2!p! E3 E | EEEE (E2 A2) | %19
 G4 E2 EE | (E2 A2) !fermata!G4 ||[K:C]!ff! G4 c4 | d2 A2 A2 GG | %23
"^–оθ!                                 Ис–полнь не– бо    и  зем–ля,          и    зем – ля        сла      –      вы   Тво–е   –   я,          сла      –     вы   Тво–е   –""^–оth!                                  Is – poln'   ne –bo    i   zem–lya,          i     zem –lya        sla       –      vyi  Tvo–ye – ya,          sla       –    vyi   Tvo–ye  –" G2 z2 z2 CD | %24
 EDEG cGcd | e2 A2- AAGG | G2 G2- GGAA | A2 D2 G2 G2 | G2 GG G2 G2 | G2 G2 G2 ^FF | G2 ^F2 G2 A2 | %31
 A2 BB ^F4 | D2 D2 G2 G2 | G2 GG G2 G2 | G2 GG G2 GG |[M:2/4] G2 A2 |[M:4/4] (A4 B4) | %37
 !fermata!G8 ||!mf! G8 | !fermata![EG]8 |!p! E8 | !fermata!E8 |] %42
V:3
!p!"^Ми–лость ми–ра,   жерт–ву  хва–ле–ни  –  я.                   И  со – ду–хом тво–им.      И –ма–мы  ко    Го – спо – ду.""^Мi – lost'     mi– ra,   zhert–vu khva-lye-ni  –  ya.                  I   so–du–khom tvo–im.       I – ma–myi ko   Go – spo – du." d4 d4 | %1
!<(! e4 e4!<)! | e4 e2 e2 |!>(! e4 d4!>)! | d8 || z4!p! c2 B2 | A4 d2 d2 | !fermata!d8 || %8
!p! c3 c c2 c2 | A4 d4 | !fermata!d8 || %11
 z4 z2!p!"^Дос – той – но   и      пра–вед–но  есть  по–кла – ня   –  ти  –   ся   От–цу  и       Сы – ну,          и   Свя – то–му  Ду –""^Dos – toi   – no    i      pra–vyed–no  yest'  po–kla – nya  –   ti   –  sya  Ot–tsu   i        Syi – nu,          i    Svya–to–mu  Du–" d2 | %12
 d4 d2 d2 |!<(! e2 ee e2 ee!<)! |!mf! e2 e2 eeee | e2 e2 z2 ee | e2 e2 d4 | %17
"^– ху,          Тро – и  –  це   е – ди–но–сущ      –         ней       и      не–pаз – дель – ней.           Свят, Свят, Свят, Гос–подь Са–ва –""^–khu,        Tro –  i   – tse  ye–di–no–sushch  –         nyei       i      nye–raz – del'  –  nyei.         Svyat, Svyat, Svyat, Gos-pod'  Sa–va –" d2 z2!p! c3 c | %18
 cccB (A2 d2) | d4 c2 cB | A2 d2 !fermata!d4 ||[K:C]!ff! e4 g4 | g2 e2 d2 dd | %23
"^–оθ!                                                                    Ис–полнь не– бо  и   зем – ля,        сла     –      вы   Тво–е   –   я,         сла      –     вы   Тво–е   –""^–оth!                                                                     Is – poln'   ne –bo    i   zem–lya,         sla       –      vyi  Tvo–ye – ya,         sla       –    vyi   Tvo–ye  –" d2 z2 z4 | %24
 z2 cd edeg | g2 d2- dddd | c2 c2- cccc | %27
"^–я:   О-сан-на в выш-них, О–сан–на  в выш–них,  бла–го–сло – вен гря–дый во        и –  мя  Гос – под      –    не.   О–сан–на""^–ya: О-san-na v vyish-nikh, О–san–na v vyish-nikh, bla – go–slo – ven grya–dyii  vo       i  – mya Gos– pod      –   nye.  O–san–na" d2 B2 c2 d2 | %28
 e2 dd c2 d2 | e2 d2 c2 dd | d2 d2 d2 e2 | ^f2 gg (d2 c2) | B2 B2 c2 d2 | %33
"^в выш-них, О–сан–на в выш–них,  О–сан – на,  О    –     сан–на           в выш      –       них!                 А     –  минь,      А    –   минь.""^v vyish-nikh, O-san-na v vyish-nikh, O–san–na,  O    –     san–na           v vyish    –       nikh!                 A   –   min',         A   –    min'." e2 dd c2 d2 | %34
 e2 dd c2 BB |[M:2/4] c2 c2 |[M:4/4] d8 | !fermata!e8 ||!mf! [ce]8 | !fermata![ce]8 |!p! G8 | %41
 !fermata!G8 |] %42
V:4
!p! G,4 D,4 |!<(! A,4 E,4!<)! | C4 C2 B,2 |!>(! A,4 F,4!>)! | G,8 || z4!p! G,2 G,2 | G,4 F,2 F,2 | %7
 !fermata!G,8 ||!p! G,3 G, G,2 G,2 | G,4 F,4 | !fermata!G,8 || z4 z2!p! G,2 | G,4 D,2 D,2 | %13
!<(! A,2 E,E, E,2 DD!<)! |!mf! C2 C2 CCB,B, | A,2 A,2 z2 A,A, | G,2 G,2 F,4 | G,2 z2!p! G,3 G, | %18
 G,G,G,G, (G,2 F,2) | G,4 G,2 G,G, | (G,2 F,2) !fermata!G,4 ||[K:C]!ff! C4 C4 | B,2 A,2 F,2 G,G, | %23
 C,2 z2 z4 | z2 CB, A,B,A,B, | C2 C2- CCB,B, | C2 C2- CCA,A, | F,2 F,2 E,2 G,2 | C2 G,G, E,2 G,2 | %29
 C2 G,2 E,2 D,D, | G,2 A,2 B,2 C2 | D2 DD D,4 | G,2 F,2 E,2 G,2 | C2 G,G, E,2 G,2 | %34
 C2 G,G, E,2 D,D, |[M:2/4] C,2 A,2 |[M:4/4] (F,4 G,4) | !fermata!C8 ||!mf! [C,G,]8 | %39
 !fermata![C,G,]8 |!p! C,8 | !fermata!C,8 |] %42

